icons/svg/adjust-audio_28.svg

<svg width="28" height="28" viewBox="0 0 28 28" xmlns="http://www.w3.org/2000/svg"><title>settings/adjust-audio_28</title><path d="M14.451 1.0688436903c.333.1382879897.549.4609599657.549.8227133297l0 24.21643158c0 .3627555-.216.6854274-.549.8237154-.11.046096-.226.0681419-.341.0681419-.231 0-.457-.0901878-.628-.2615446L5.968 18.984153l-3.128 0c-1.563 0-2.833-1.2726504-2.833-2.8389122L0 11.8001921c0-1.56626179 1.271-2.8409163 2.833-2.8409163l3.13 0 7.516-7.694023081.003-.003006261c.254-.2555321544.636-.3336949311.969-.1934027677zM14 25.8344189l0-23.67029425-7.47 7.646925c-.093.09620034-.222.15031303-.357.15031303l-3.34 0c-1.011 0-1.833.82371542-1.833 1.83782732l.007 4.3450487c0 1.014112.822 1.8378274 1.833 1.8378274l3.34 0c.134 0 .264.0551148.358.1513151L14 25.8344189zm6-10.8098118c1.141.231482 2 1.2425877 2 2.4541107 0 1.2125252-.859 2.2226287-2 2.4551129l0 1.5532347c0 .2755739-.225.5010434-.5.5010434-.275 0-.5-.2254695-.5-.5010434l0-1.5532347c-1.141-.2324842-2-1.2425877-2-2.4551129 0-1.211523.859-2.2226287 2-2.4541107l0-8.56884496c0-.27557389.225-.50104344.5-.50104344.275 0 .5.22546955.5.50104344l0 8.56884496zm-.199 3.9271785c.695-.1412943 1.199-.760584 1.199-1.4730678 0-.7114816-.504-1.3307713-1.199-1.4720656l-.301-.0611273-.301.0611273c-.695.1412943-1.199.760584-1.199 1.4720656 0 .7124838.504 1.3317735 1.199 1.4730678l.301.0611273.301-.0611273zM26 8.00999889c1.141.23148207 2 1.24258774 2 2.45411078 0 1.21252513-.859 2.22262873-2 2.45511283l0 8.5678429c0 .2755739-.225.5010434-.5.5010434-.275 0-.5-.2254695-.5-.5010434l0-8.5678429c-1.141-.2324841-2-1.2425877-2-2.45511283 0-1.21152304.859-2.22262871 2-2.45411078l0-1.55423675c0-.27557389.225-.50104344.5-.50104344.275 0 .5.22546955.5.50104344l0 1.55423675zm-.199 3.92717851c.695-.1412943 1.199-.760584 1.199-1.47306773 0-.71148169-.504-1.33077138-1.199-1.47206563l-.301-.0611273-.301.0611273c-.695.14129425-1.199.76058394-1.199 1.47206563 0 .71248373.504 1.33177343 1.199 1.47306773l.301.0611273.301-.0611273z" fill="#000" fill-rule="evenodd"/></svg>

<?xml version="1.0" encoding="UTF-8"?>
<svg width="28px" height="28px" viewBox="0 0 28 28" version="1.1" xmlns="http://www.w3.org/2000/svg" xmlns:xlink="http://www.w3.org/1999/xlink">
    <!-- Generator: Sketch 60.1 (88133) - https://sketch.com -->
    <title>settings/adjust-audio_28</title>
    <desc>Created with Sketch.</desc>
    <g id="settings/adjust-audio_28" stroke="none" stroke-width="1" fill="none" fill-rule="evenodd">
        <path d="M13.482,1.26224646 C13.736,1.0067143 14.118,0.928551527 14.451,1.06884369 C14.784,1.20713168 15,1.52980366 15,1.89155702 L15,1.89155702 L15,26.1079886 C15,26.4707441 14.784,26.793416 14.451,26.931704 C14.341,26.9778 14.225,26.9998459 14.11,26.9998459 C13.879,26.9998459 13.653,26.9096581 13.482,26.7383013 L13.482,26.7383013 L5.968,18.984153 L2.84,18.984153 C1.277,18.984153 0.007,17.7115026 0.007,16.1452408 L0.007,16.1452408 L0,11.8001921 C0,10.2339303 1.271,8.9592758 2.833,8.9592758 L2.833,8.9592758 L5.963,8.9592758 L13.479,1.26525272 Z M14,2.16412465 L6.53,9.81104965 C6.437,9.90724999 6.308,9.96136268 6.173,9.96136268 L6.173,9.96136268 L2.833,9.96136268 C1.822,9.96136268 1,10.7850781 1,11.79919 L1,11.79919 L1.007,16.1442387 C1.007,17.1583507 1.829,17.9820661 2.84,17.9820661 L2.84,17.9820661 L6.18,17.9820661 C6.314,17.9820661 6.444,18.0371809 6.538,18.1333812 L6.538,18.1333812 L14,25.8344189 L14,2.16412465 Z M19.5,5.9547187 C19.775,5.9547187 20,6.18018825 20,6.45576214 L20,6.45576214 L20,15.0246071 C21.141,15.2560891 22,16.2671948 22,17.4787178 C22,18.691243 21.141,19.7013465 20,19.9338307 L20,19.9338307 L20,21.4870654 C20,21.7626393 19.775,21.9881088 19.5,21.9881088 C19.225,21.9881088 19,21.7626393 19,21.4870654 L19,21.4870654 L19,19.9338307 C17.859,19.7013465 17,18.691243 17,17.4787178 C17,16.2671948 17.859,15.2560891 19,15.0246071 L19,15.0246071 L19,6.45576214 C19,6.18018825 19.225,5.9547187 19.5,5.9547187 Z M25.5,5.9547187 C25.775,5.9547187 26,6.18018825 26,6.45576214 L26,6.45576214 L26,8.00999889 C27.141,8.24148096 28,9.25258663 28,10.4641097 C28,11.6766348 27.141,12.6867384 26,12.9192225 L26,12.9192225 L26,21.4870654 C26,21.7626393 25.775,21.9881088 25.5,21.9881088 C25.225,21.9881088 25,21.7626393 25,21.4870654 L25,21.4870654 L25,12.9192225 C23.859,12.6867384 23,11.6766348 23,10.4641097 C23,9.25258663 23.859,8.24148096 25,8.00999889 L25,8.00999889 L25,6.45576214 C25,6.18018825 25.225,5.9547187 25.5,5.9547187 Z M19.5,15.9455249 L19.199,16.0066522 C18.504,16.1479465 18,16.7672362 18,17.4787178 C18,18.1912016 18.504,18.8104913 19.199,18.9517856 L19.199,18.9517856 L19.5,19.0129129 L19.801,18.9517856 C20.496,18.8104913 21,18.1912016 21,17.4787178 C21,16.7672362 20.496,16.1479465 19.801,16.0066522 L19.801,16.0066522 L19.5,15.9455249 Z M25.5,8.93091674 L25.199,8.99204404 C24.504,9.13333829 24,9.75262798 24,10.4641097 C24,11.1765934 24.504,11.7958831 25.199,11.9371774 L25.199,11.9371774 L25.5,11.9983047 L25.801,11.9371774 C26.496,11.7958831 27,11.1765934 27,10.4641097 C27,9.75262798 26.496,9.13333829 25.801,8.99204404 L25.801,8.99204404 L25.5,8.93091674 Z" id="fill" fill="#171B1F"></path>
    </g>
</svg>
